X:123
T:The Trip To Herve's
C:Michael McGoldrick
M:4/4
L:1/8
R:reel
K:Dmaj
FAAF ABde | f2af dAFA | B2dB AFDE | FEED E2DE |
FAAF ABde | f2af dafd | ABBd AFEG |1 EFFE DBAG :|2 EFFE DEFG|:
B3c dcBA | EFFE FGFE | DEFG A2DE | FGA2 FGAF |1
B3c dcBA | EFFE FGFE | DEFG ABAG | FGEG FDEF :|2
B2FA2EF2 | DEED EFGA | B2FA2EF2 | DEED EFGA |]
